!!!!SEGMENT: Lhe2008-Alma_redemptoris_mater.krn
!!!id: Lhe2008
!!!AGN: Motet
!!!voices: 5
!!!COM: Jean Lhéritier
!!!OTL: Alma redemptoris mater
**kern	**kern	**kern	**kern	**kern
*part5	*part4	*part3	*part2	*part1
*staff5	*staff4	*staff3	*staff2	*staff1
*I"Bassus	*I"Tenor	*I"Altus	*I"Superius II	*I"Superius I
*I'B	*I'T	*I'A	*I'S. II	*I'S. I
*clefF4	*clefGv2	*clefG2	*clefG2	*clefG2
*k[b-]	*k[b-]	*k[b-]	*k[b-]	*k[b-]
*F:	*F:	*F:	*F:	*F:
*M2/1	*M2/1	*M2/1	*M2/1	*M2/1
*met(C|)	*met(C|)	*met(C|)	*met(C|)	*met(C|)
!!Section: Prima pars: Alma redemptoris mater
!!!OMD: Prima pars: Alma redemptoris mater
0r	1F	0r	0r	0r
.	1A	.	.	.
=1	=1	=1	=1	=1
0r	1B-y	0r	0r	1f
.	2c	.	.	1a
.	[2d	.	.	.
=2	=2	=2	=2	=2
0r	2d]	0r	1r	1b-y
.	4c	.	.	.
.	4B-y	.	.	.
.	4A	.	1f	1cc
.	4F	.	.	.
.	[2f	.	.	.
=3	=3	=3	=3	=3
0r	2f]	0r	1a	1cc
.	2e	.	.	.
.	1d	.	1b-y	1ff
=4	=4	=4	=4	=4
0r	2r	0r	1cc	1ee
.	1c	.	.	.
.	.	.	1cc	2r
.	2d	.	.	[2a
=5	=5	=5	=5	=5
0r	1e	0r	2r	2a]
.	.	.	1cc	2g
.	1f	.	.	1a
.	.	.	2dd	.
=6	=6	=6	=6	=6
0r	2e	0r	1ee	2g
.	2c	.	.	1cc
.	1d	.	1ff	.
.	.	.	.	2bnXi
=7	=7	=7	=7	=7
0r	2c	1c	1.ee	0cc
.	2.g	.	.	.
.	.	1e	.	.
.	4f	.	.	.
.	2e	.	[2cc	.
=8	=8	=8	=8	=8
0r	1d	1f	2cc]	2dd
.	.	.	2bnXi	1ff
.	[1c	1g	[1cc	.
.	.	.	.	4ee
.	.	.	.	4dd
=9	=9	=9	=9	=9
1C	1c]	0g	0cc_	2.ee
.	.	.	.	4dd
1E	2r	.	.	2cc
.	2G	.	.	2b-y
=10	=10	=10	=10	=10
1F	2c	2f	1cc]	2a
.	2A	2.a	.	2ff
1G	1B-y	.	1r	2ee
.	.	4g	.	.
.	.	[2g	.	[2dd
=11	=11	=11	=11	=11
1A	1c	2g]	1r	4dd]
.	.	.	.	4cc
.	.	2f#i	.	1cc
1G	1d	[1g	1dd	.
.	.	.	.	2bnXi
=12	=12	=12	=12	=12
2r	1c	0g]	2.ee	2.cc
1c	.	.	.	.
.	.	.	8ddL	8b-yL
.	.	.	8ccJ	8aJ
.	2r	.	2ee	2g
2B-y	2G	.	[2dd	2d
=13	=13	=13	=13	=13
1A	2c	1c	4dd]	2e
.	.	.	4cc	.
.	2A	.	1cc	2f
1G	2.B-y	1d	.	[1g
.	.	.	2bnXi	.
.	4A	.	.	.
=14	=14	=14	=14	=14
1C	2G	2c	[0cc	0g]
.	2c	2e	.	.
2r	1c	2e	.	.
2c	.	2e	.	.
=15	=15	=15	=15	=15
1c	1.F	1.f	1cc]	2r
.	.	.	.	2cc
[1F	.	.	2r	1cc
.	2G	2f	2cc	.
=16	=16	=16	=16	=16
2F]	2A	1c	1cc	1f
2G	2B-y	.	.	.
2A	2c	1r	2.f	2.ff
[2B-y	[2d	.	.	.
.	.	.	8gL	4ee
.	.	.	8fJ	.
=17	=17	=17	=17	=17
2B-]	2d]	1g	2g	4dd
.	.	.	.	4cc
2A	1c	.	1f	4b-y
.	.	.	.	4a
1G	.	1g	.	1b-y
.	2B-y	.	2e	.
=18	=18	=18	=18	=18
1F	2c	0c	2f	2.a
.	2f	.	2a	.
.	.	.	.	4b-y
1r	2e	.	2.g	4cc
.	.	.	.	4dd
.	[2g	.	.	2ee
.	.	.	4a	.
=19	=19	=19	=19	=19
1G	4g]	1d	2b-y	2dd
.	4f	.	.	.
.	2e	.	2g	1cc
1G	1d	2r	1dd	.
.	.	2g	.	2bnXi
=20	=20	=20	=20	=20
2.C	2r	1g	2r	2.cc
.	2c	.	2.ee	.
4D	.	.	.	8b-yL
.	.	.	.	8aJ
2E	1c	1c	.	2g
.	.	.	4dd	.
2F	.	.	[2cc	[2a
=21	=21	=21	=21	=21
1D	1F	1d	2cc]	2a]
.	.	.	2bnXi	4g
.	.	.	.	4f
1C	1G	2r	[1cc	2e
.	.	2e	.	[2cc
=22	=22	=22	=22	=22
1.F	1.A	2.f	1cc]	4cc]
.	.	.	.	4b-y
.	.	.	.	4a
.	.	8eL	.	4g
.	.	8dJ	.	.
.	.	2c	1r	2a
2E	[2B-y	2G	.	[2g
=23	=23	=23	=23	=23
1D	4B-]	2A	1r	4g]
.	4A	.	.	4f
.	4G	2B-y	.	1f
.	4F	.	.	.
1C	1G	1c	[1cc	.
.	.	.	.	2e
=24	=24	=24	=24	=24
0F	2F	0A	1cc]	1f
.	2.f	.	.	.
.	.	.	[1ff	2r
.	4e	.	.	.
.	4d	.	.	2f
.	4c	.	.	.
=25	=25	=25	=25	=25
1r	1d	0r	2ff]	1b-y
.	.	.	2dd	.
2r	1c	.	2ee	2g
2F	.	.	[2ff	[2a
=26	=26	=26	=26	=26
1.B-y	0r	1r	2ff]	2a]
.	.	.	2ee	4g
.	.	.	.	4f
.	.	1d	1dd	1b-y
2G	.	.	.	.
=27	=27	=27	=27	=27
1.A	0r	1f	1cc	2.a
.	.	.	.	8gL
.	.	.	.	8fJ
.	.	2e	1r	2a
[2B-y	.	[2d	.	[2g
=28	=28	=28	=28	=28
2B-]	1r	4d]	0r	4g]
.	.	4c	.	4f
2A	.	1c	.	2f
1G	1d	.	.	1b-y
.	.	2B-y	.	.
=29	=29	=29	=29	=29
2.F	1.f	1c	1.cc	2.a
4G	.	.	.	4b-y
2A	.	1r	.	2cc
2B-y	2d	.	2b-y	[2dd
=30	=30	=30	=30	=30
2c	2e	1r	2g	4dd]
.	.	.	.	4cc
2F	2f	.	2a	1cc
1G	1d	[1g	2g	.
.	.	.	2dd	2bnXi
=31	=31	=31	=31	=31
1C	2r	1g]	2.ee	2cc
.	1c	.	.	2g
.	.	.	8ddL	.
.	.	.	8ccJ	.
1G	.	1g	2ee	1b-y
.	2B-y	.	[2dd	.
=32	=32	=32	=32	=32
2A	2c	2e	4dd]	1a
.	.	.	4cc	.
2F	2A	2f	1cc	.
1G	2.B-y	1d	.	[1g
.	.	.	2bnXi	.
.	4A	.	.	.
=33	=33	=33	=33	=33
2C	2G	0c	[0cc	2g]
1F	2F	.	.	1a
.	2A	.	.	.
2G	2B-y	.	.	4g
.	.	.	.	4f
=34	=34	=34	=34	=34
1A	1c	2r	1cc]	2e
.	.	2c	.	1a
1B-y	1r	1d	1r	.
.	.	.	.	2g
=35	=35	=35	=35	=35
0A	2r	2e	1.cc	0a
.	1F	1f	.	.
.	2G	4e	2b-y	.
.	.	4d	.	.
=36	=36	=36	=36	=36
0r	2A	2c	2a	1r
.	2.B-y	2.d	2.g	.
.	.	.	.	[1b-y
.	4A	4c	4f	.
.	4G	[2c	[2f	.
.	4F	.	.	.
=37	=37	=37	=37	=37
1r	1G	2c]	2f]	2b-]
.	.	2B-y	2e	4a
.	.	.	.	4g
2.F	1F	4c	[1f	2.a
.	.	4A	.	.
.	.	[2a	.	.
4G	.	.	.	4b-y
=38	=38	=38	=38	=38
2A	1r	4a]	1f]	2cc
.	.	4g	.	.
1B-y	.	4f	.	1dd
.	.	4e	.	.
.	2r	4f	1r	.
.	.	4g	.	.
4A	[2f	[2a	.	4cc
4G	.	.	.	4b-y
=39	=39	=39	=39	=39
2A	2f]	2a]	0r	2cc
2B-y	4e	2g	.	2.dd
.	4d	.	.	.
2c	2e	1a	.	.
.	.	.	.	4cc
2F	2f	.	.	[2cc
=40	=40	=40	=40	=40
1G	1d	2.g	0r	2cc]
.	.	.	.	2bnXi
.	.	4f	.	.
2.A	2c	2e	.	2.cc
.	4F	2f	.	.
4G	4G	.	.	4b-y
=41	=41	=41	=41	=41
2F	4A	2c	1.cc	2a
.	4B-y	.	.	.
2C	2.c	2.e	.	2.g
2E	.	.	.	.
.	4B-y	4d	.	4f
2F	2A	4c	2cc	[2f
.	.	4B-y	.	.
=42	=42	=42	=42	=42
1C	1G	0c	1cc	2f]
.	.	.	.	2e
2r	1F	.	2.a	[1f
[2c	.	.	.	.
.	.	.	8gL	.
.	.	.	8fJ	.
=43	=43	=43	=43	=43
2c]	2r	1d	2a	1f]
2B-y	1f	.	2b-y	.
1c	.	2r	1g	1r
.	2e	[2g	.	.
=44	=44	=44	=44	=44
1A	1f	2g]	2r	0r
.	.	2f	1cc	.
1G	1d	1g	.	.
.	.	.	2b-y	.
=45	=45	=45	=45	=45
0r	2c	1e	1cc	1r
.	1g	.	.	.
.	.	1d	1a	2r
.	2f	.	.	[2ff
=46	=46	=46	=46	=46
1c	2g	1r	1g	2ff]
.	2g	.	.	2ee
[1B-y	1d	2.f	1b-y	1ff
.	.	4e	.	.
=47	=47	=47	=47	=47
2B-]	2r	4f	0r	1dd
.	.	4g	.	.
2F	1f	2.a	.	.
1c	.	.	.	2.cc
.	.	8gL	.	.
.	.	8fJ	.	.
.	2e	2g	.	.
.	.	.	.	4b-y
=48	=48	=48	=48	=48
1d	2f	2d	1r	4a
.	.	.	.	4g
.	2.d	2.f	.	2.b-y
1D	.	.	1dd	.
.	4c	4e	.	4a
.	4B-y	4d	.	[2a
.	4A	4c	.	.
=49	=49	=49	=49	=49
1r	1B-y	2.d	1dd	2a]
.	.	.	.	2g
.	.	4e	.	.
[1F	2.A	1f	2.cc	1a
.	4B-y	.	4b-y	.
=50	=50	=50	=50	=50
2F]	2c	2r	4a	1r
.	.	.	4g	.
2D	2.d	2f	2.b-y	.
1F	.	2f	.	[1dd
.	4c	.	4a	.
.	4B-y	2f	[2a	.
.	4A	.	.	.
=51	=51	=51	=51	=51
1G	1B-y	1d	2a]	1dd]
.	.	.	2g	.
1D	1A	[1d	2.a	2.ff
.	.	.	8gL	4ee
.	.	.	8aJ	.
=52	=52	=52	=52	=52
1.G	0r	1d]	4b-y	2dd
.	.	.	4a	.
.	.	.	4g	2cc
.	.	.	4f	.
.	.	2r	1g	1b-y
2G	.	[2d	.	.
=53	=53	=53	=53	=53
2.F	0r	2d]	1r	1a
.	.	2d	.	.
4G	.	.	.	.
2A	.	2c	[1f	1r
[2B-y	.	[2d	.	.
=54	=54	=54	=54	=54
2B-]	0B-y	4d]	1f]	0r
.	.	4e	.	.
2A	.	1f	.	.
1G	.	.	1g	.
.	.	2e	.	.
=55	=55	=55	=55	=55
1F	1c	2.f	2.a	0r
.	.	4e	8gL	.
.	.	.	8aJ	.
1r	2d	2f	2b-y	.
.	[2e-i	[2g	[2cc	.
=56	=56	=56	=56	=56
0r	2e-]	4g]	4cc]	0cc
.	.	4f	4b-y	.
.	2d	2.f	1b-y	.
.	1c	.	.	.
.	.	8eL	.	.
.	.	8dJ	.	.
.	.	2e	2a	.
=57	=57	=57	=57	=57
1G	1B-y	2d	1b-y	2.dd
.	.	4G	.	.
.	.	4A	.	4cc
1D	1F	4B-y	1r	2b-y
.	.	4c	.	.
.	.	[2d	.	2a
=58	=58	=58	=58	=58
1E	1G	2d]	1r	1g
.	.	2c#i	.	.
2.D	1A	1d	[1a	[1f
4C	.	.	.	.
=59	=59	=59	=59	=59
4D	1A	2r	2a]	1f]
4E	.	.	.	.
1F	.	2c	4g	.
.	.	.	4f	.
.	1B-y	2d	2g	1r
2E	.	2e-X	2g	.
=60	=60	=60	=60	=60
2F	2A	2c	2f	0r
2.E	2.B-y	2.e-i	2.g	.
4F	4A	4d	4f	.
2D	4G	4c	[2f	.
.	4F	4B-y	.	.
=61	=61	=61	=61	=61
1C	1G	1.c	2f]	1g
.	.	.	2e	.
[1F	2F	.	1f	2.a
.	[2c	[2f	.	.
.	.	.	.	8gL
.	.	.	.	8fJ
=62	=62	=62	=62	=62
2F]	2c]	4f]	0r	2a
.	.	4e	.	.
2G	2B-y	2d	.	2.g
2A	2c	2c	.	.
.	.	.	.	4f
2B-y	[2d	[2B-y	.	[2f
=63	=63	=63	=63	=63
1G	4d]	2B-]	1r	2f]
.	4c	.	.	.
.	1B-y	2G	.	2e
1F	.	2d	2r	2f
.	2A	[2c	[2f	[2a
=64	=64	=64	=64	=64
1G	1B-y	4c]	2f]	2a]
.	.	4B-y	.	.
.	.	2B-y	2e	2g
2F	[1c	2A	2f	2a
2C	.	[2e	[2cc	[2g
=65	=65	=65	=65	=65
2E	2c]	4e]	2cc]	4g]
.	.	4d	.	4f
2F	4B-y	4c	2cc	1f
.	4A	4B-y	.	.
1C	1G	1c	1cc	.
.	.	.	.	2e
=66	=66	=66	=66	=66
1F	0F	2A	2r	2f
.	.	1f	1cc	1a
2r	.	.	.	.
[2F	.	2f	2cc	2a
=67	=67	=67	=67	=67
2F]	2r	1f	[0cc	2a
2F	1c	.	.	1a
1F	.	2r	.	.
.	2c	2f	.	2a
=68	=68	=68	=68	=68
2E	1c	2g	1cc]	2g
2F	.	1f	.	2a
1G	2B-y	.	1r	1b-y
.	2c	2e	.	.
=69	=69	=69	=69	=69
1F	1d	2f	0r	2a
.	.	2.F	.	2b-y
2r	2.c	.	.	4cc
.	.	4G	.	4b-y
[2F	.	4A	.	4a
.	4B-y	4B-y	.	4g
=70	=70	=70	=70	=70
2F]	4A	2c	0r	2f
.	4G	.	.	.
2E	2.B-y	2G	.	2.g
1D	.	2A	.	.
.	4A	.	.	4f
.	4G	2B-y	.	[2f
.	4F	.	.	.
=71	=71	=71	=71	=71
1C	1G	1c	1.cc	2f]
.	.	.	.	2e
1F	2F	1A	.	1f
.	2A	.	2cc	.
=72	=72	=72	=72	=72
0r	2G	0d	2b-y	2.g
.	2A	.	2cc	.
.	.	.	.	4g
.	1B-y	.	1dd	2f
.	.	.	.	2g
=73	=73	=73	=73	=73
2r	2.A	1r	2.cc	2a
1F	.	.	.	1f
.	4F	.	4b-y	.
.	1c	2r	2a	.
2C	.	2G	[2g	2e
=74	=74	=74	=74	=74
2D	2A	2d	4g]	1f
.	.	.	4f	.
2BB-y	2B-y	2d	1f	.
1C	1G	2c	.	[1cc
.	.	2c	2e	.
=75	=75	=75	=75	=75
1F	[0Fl	1A	[0fl	2cc]
.	.	.	.	1dd
1BB-y	.	1B-y	.	.
.	.	.	.	4cc
.	.	.	.	4b-y
=76	=76	=76	=76	=76
[0Fl	0F_	1c	0f_	[0al
.	.	1d	.	.
=77	=77	=77	=77	=77
00F]	00F]	00c	00f]	00a]
=78||	=78||	=78||	=78||	=78||
*M2/1	*M2/1	*M2/1	*M2/1	*M2/1
*met(C|)	*met(C|)	*met(C|)	*met(C|)	*met(C|)
!!Section: Secunda pars: Tu que genuisti
!!!OMD: Secunda pars: Tu que genuisti
0r	0r	1c	1g	0cc
.	.	[1f	[1a	.
=79	=79	=79	=79	=79
0r	0r	2f]	2a]	0cc
.	.	2e	2g	.
.	.	1f	1a	.
=80	=80	=80	=80	=80
1r	1r	1d	1f	1b-y
1C	1G	[1c	1g	1cc
=81	=81	=81	=81	=81
1.F	2A	1c]	1r	1a
.	2F	.	.	.
.	1G	2r	2r	1g
2E	.	2c	2g	.
=82	=82	=82	=82	=82
1F	1A	1c	2f	0r
.	.	.	2.a	.
1D	1F	1B-y	.	.
.	.	.	4g	.
.	.	.	[2f	.
=83	=83	=83	=83	=83
1C	1G	1c	2f]	0cc
.	.	.	2e	.
1r	[1F	1A	1f	.
=84	=84	=84	=84	=84
1.F	1F]	1A	1cc	2.a
.	.	.	.	4b-y
.	1r	1r	2a	2cc
2D	.	.	[2b-y	[2dd
=85	=85	=85	=85	=85
1F	0r	2r	4b-]	4dd]
.	.	.	4a	4cc
.	.	2f	1a	4b-y
.	.	.	.	4a
1G	.	2d	.	1b-y
.	.	2e	2g	.
=86	=86	=86	=86	=86
1.F	1c	2.f	1a	1a
.	.	8eL	.	.
.	.	8dJ	.	.
.	2A	4c	1r	1r
.	.	4d	.	.
[2G	[2B-y	[2e	.	.
=87	=87	=87	=87	=87
4G]	4B-]	4e]	2r	0r
4F	4A	4d	.	.
4E	1A	1d	2f	.
4D	.	.	.	.
1E	.	.	1g	.
.	2G	2c#i	.	.
=88	=88	=88	=88	=88
1D	1A	2d	2f	2.a
.	.	1f	1a	.
.	.	.	.	4b-y
1r	1r	.	.	4cc
.	.	.	.	4a
.	.	2e	[2g	[2b-y
=89	=89	=89	=89	=89
1r	1r	1d	4g]	4b-]
.	.	.	4f	4a
.	.	.	1f	4g
.	.	.	.	4f
1C	1G	[1c	.	1g
.	.	.	2e	.
=90	=90	=90	=90	=90
2.F	2.A	2c]	1f	2f
.	.	1f	.	1a
4E	4G	.	.	.
2F	2A	.	1r	.
2G	2B-y	2d	.	[2g
=91	=91	=91	=91	=91
2E	2c	2e	2r	4g]
.	.	.	.	4f
2F	2A	2c	2f	1f
1C	1G	1c	1g	.
.	.	.	.	2e
=92	=92	=92	=92	=92
2.F	1F	2r	1a	0f
.	.	2c	.	.
4G	.	.	.	.
4A	2r	1d	1a	.
4B-y	.	.	.	.
[2c	2F	.	.	.
=93	=93	=93	=93	=93
2c]	1G	1e	2g	0r
2B-y	.	.	2b-y	.
1c	1A	1e	2a	.
.	.	.	[2cc	.
=94	=94	=94	=94	=94
1F	1A	1f	4cc]	1cc
.	.	.	4b-y	.
.	.	.	4a	.
.	.	.	4g	.
1r	1B-y	1d	2f	1dd
.	.	.	2g	.
=95	=95	=95	=95	=95
0r	0c	0g	2g	1ee
.	.	.	2cc	.
.	.	.	2cc	1ee
.	.	.	2cc	.
=96	=96	=96	=96	=96
0r	2r	2f	2a	1ff
.	2B-y	2d	2b-y	.
.	2c	2e	2g	2ee
.	2d	2f	[2b-y	[2dd
=97	=97	=97	=97	=97
0r	2e	2g	2b-]	4dd]
.	.	.	.	4cc
.	2f	2.a	2a	1cc
.	1d	.	1f	.
.	.	4g	.	.
.	.	[2f	.	2bnXi
=98	=98	=98	=98	=98
1r	1c	2f]	1g	1.cc
.	.	2e	.	.
1F	2r	2.f	1a	.
.	[2c	.	.	2a
.	.	4e	.	.
=99	=99	=99	=99	=99
1G	2c]	1d	1g	1b-y
.	2B-y	.	.	.
1A	2c	1c	1r	[1a
.	2f	.	.	.
=100	=100	=100	=100	=100
1A	2e	2r	2r	1a]
.	1f	2c	2.a	.
1B-y	.	1d	.	1r
.	.	.	4f	.
.	4e	.	2g	.
.	4d	.	.	.
=101	=101	=101	=101	=101
2A	2c	2e	2a	0r
2F	2A	2f	2.cc	.
1G	1B-y	2d	.	.
.	.	.	4b-y	.
.	.	2e	[2b-y	.
=102	=102	=102	=102	=102
1F	1c	1f	2b-]	1.ff
.	.	.	2a	.
1r	1B-y	2.d	2b-y	.
.	.	.	[2b-y	2ee
.	.	4c	.	.
=103	=103	=103	=103	=103
1B-y	0r	4d	2b-]	1dd
.	.	4e	.	.
.	.	1f	2a	.
1c	.	.	1g	1cc
.	.	2e	.	.
=104	=104	=104	=104	=104
2.F	2r	1f	2f	2a
.	1f	.	1a	2.dd
4E	.	.	.	.
2D	.	2r	.	.
.	.	.	.	4cc
2E	2e	2c	2g	[2cc
=105	=105	=105	=105	=105
2F	1d	2A	2a	2cc]
2G	.	2B-y	2g	2bnXi
1C	2c	2G	1g	1cc
.	2e	[2c	.	.
=106	=106	=106	=106	=106
1G	1d	2c]	1.g	2r
.	.	2BnXi	.	2dd
1r	2c	1c	.	2dd
.	2A	.	2a	[2ff
=107	=107	=107	=107	=107
2r	1B-y	1d	2f	4ff]
.	.	.	.	4ee
2G	.	.	2g	1dd
1c	1A	1e	1a	.
.	.	.	.	2cc
=108	=108	=108	=108	=108
2B-y	2d	2f	1b-y	1dd
2.d	4B-y	4d	.	.
.	4c	4e	.	.
.	4d	4f	1a	2r
4c	4e	4g	.	.
2A	[2f	[2a	.	2cc
=109	=109	=109	=109	=109
2B-y	4f]	2a]	0r	2dd
.	4d	.	.	.
2c	2e	2g	.	2.cc
[1F	2f	2a	.	.
.	.	.	.	4b-y
.	2F	[2f	.	4a
.	.	.	.	4g
=110	=110	=110	=110	=110
2F]	2.c	2f]	0r	2a
2C	.	2e	.	2.g
.	4B-y	.	.	.
2D	2A	1d	.	.
.	.	.	.	4f
2BB-y	2B-y	.	.	[2f
=111	=111	=111	=111	=111
1C	1G	1c	[0cc	2f]
.	.	.	.	2e
[1F	[1F	2r	.	2.f
.	.	[2f	.	.
.	.	.	.	4g
=112	=112	=112	=112	=112
1F]	1F]	2f]	1cc]	4a
.	.	.	.	4b-y
.	.	2e	.	1cc
1r	1r	2.d	1dd	.
.	.	.	.	2b-y
.	.	4c	.	.
=113	=113	=113	=113	=113
1r	0c	0A	1ee	1.cc
[1F	.	.	2.ff	.
.	.	.	.	2b-y
.	.	.	4ee	.
=114	=114	=114	=114	=114
1F]	1d	0r	2dd	1a
.	.	.	1cc	.
1G	1d	.	.	[1g
.	.	.	2bnXi	.
=115	=115	=115	=115	=115
1C	2.e	2r	1cc	1g]
.	.	1c	.	.
.	8dL	.	.	.
.	8cJ	.	.	.
1G	2e	.	1r	2r
.	[2d	2B-y	.	[2g
=116	=116	=116	=116	=116
1A	4d]	1c	0r	2g]
.	4c	.	.	.
.	2.c	.	.	2f
1G	.	1d	.	2g
.	8B-yL	.	.	.
.	8AJ	.	.	.
.	2B-y	.	.	2dd
=117	=117	=117	=117	=117
2C	2G	1c	0r	2.ee
1c	2A	.	.	.
.	.	.	.	8ddL
.	.	.	.	8ccJ
.	2G	1g	.	2ee
2B-y	2d	.	.	[2dd
=118	=118	=118	=118	=118
2c	2e	1a	1r	4dd]
.	.	.	.	4cc
2F	2f	.	.	1cc
1G	1d	1g	2r	.
.	.	.	2g	2bnXi
=119	=119	=119	=119	=119
0C	[0c	2r	2e	[0cc
.	.	2g	2.g	.
.	.	2e	.	.
.	.	.	4f	.
.	.	[2g	4e	.
.	.	.	4d	.
=120	=120	=120	=120	=120
2r	1c]	4g]	2c	0cc]
.	.	4f	.	.
2c	.	4e	2g	.
.	.	4d	.	.
2A	2r	2.c	2a	.
[2c	2c	.	2g	.
.	.	4d	.	.
=121	=121	=121	=121	=121
4c]	2A	1e	1cc	2r
4B-y	.	.	.	.
4A	2.c	.	.	2cc
4G	.	.	.	.
2.F	.	[1f	2r	2a
.	4B-y	.	.	.
.	4A	.	2cc	[2cc
4G	4G	.	.	.
=122	=122	=122	=122	=122
1A	2.F	1f]	2a	4cc]
.	.	.	.	4b-y
.	.	.	2.cc	4a
.	4G	.	.	4g
2r	1A	2c	.	2f
.	.	.	4b-y	.
2F	.	[2f	4a	2cc
.	.	.	4g	.
=123	=123	=123	=123	=123
2B-y	1r	4f]	2f	2dd
.	.	4g	.	.
2A	.	2a	1ff	2cc
2B-y	2r	1g	.	2dd
2c	2c	.	2ee	[2cc
=124	=124	=124	=124	=124
2.F	2A	2r	1ff	4cc]
.	.	.	.	4b-y
.	2.c	2f	.	2a
4E	.	.	.	.
2C	.	2e	1r	2g
.	4B-y	.	.	.
[2F	4A	[2f	.	[2a
.	4G	.	.	.
=125	=125	=125	=125	=125
2F]	2A	4f]	1r	4a]
.	.	4e	.	4g
2BB-y	2B-y	2d	.	1f
1C	1G	1c	[1cc	.
.	.	.	.	2e
=126	=126	=126	=126	=126
2.F	2F	2r	0cc_	1f
.	1c	2f	.	.
4G	.	.	.	.
2A	.	2e	.	1r
2F	2d	2f	.	.
=127	=127	=127	=127	=127
2c	2e	2g	1cc]	2r
2F	2f	2a	.	1cc
1r	1d	1f	1dd	.
.	.	.	.	2b-y
=128	=128	=128	=128	=128
2r	2c	1g	1ee	2cc
1c	2e	.	.	2g
.	1d	1r	1ff	2a
2B-y	.	.	.	2b-y
=129	=129	=129	=129	=129
2c	2r	0r	2ee	2g
2A	2c	.	1ff	1a
1B-y	1d	.	.	.
.	.	.	4ee	2g
.	.	.	4dd	.
=130	=130	=130	=130	=130
1A	2e	2r	2.cc	1a
.	2.f	2c	.	.
.	.	.	4b-y	.
1D	.	2d	4a	1r
.	4e	.	4g	.
.	4d	[2f	[2b-y	.
.	4c	.	.	.
=131	=131	=131	=131	=131
0r	2d	2f]	4b-]	1r
.	.	.	4a	.
.	2A	1e	1a	.
.	1B-y	.	.	2r
.	.	2d	2g	[2dd
=132	=132	=132	=132	=132
2r	1A	1e	1a	2dd]
1c	.	.	.	2cc
.	1r	2r	1r	1dd
2B-y	.	[2f	.	.
=133	=133	=133	=133	=133
1c	0r	2f]	0cc	1g
.	.	2e	.	.
1F	.	1f	.	1a
=134	=134	=134	=134	=134
2r	0r	1B-y	1b-y	1g
2G	.	.	.	.
2A	.	2r	1cc	2e
2F	.	2c	.	[2f
=135	=135	=135	=135	=135
1B-y	1r	2d	2f	4f]
.	.	.	.	4e
.	.	2B-y	2g	2d
2A	1c	2f	1a	1c
2F	.	[2f	.	.
=136	=136	=136	=136	=136
1G	1B-y	4f]	1b-y	1r
.	.	4d	.	.
.	.	2e	.	.
2F	1c	2f	[1a	2r
2C	.	2e	.	[2cc
=137	=137	=137	=137	=137
2D	1F	2f	1a]	4cc]
.	.	.	.	4b-y
1F	.	2c	.	4a
.	.	.	.	4g
.	1B-y	2d	1r	2f
2E	.	2e-X	.	[2g
=138	=138	=138	=138	=138
1F	1A	0c	1r	4g]
.	.	.	.	4f
.	.	.	.	1f
1C	1G	.	[1cc	.
.	.	.	.	2e
=139	=139	=139	=139	=139
1F	[0Fl	1A	1cc]	[0fl
1F	.	1c	1a	.
=140	=140	=140	=140	=140
0BB-y	0F_	0d	1.b-y	0f_
.	.	.	4a	.
.	.	.	4g	.
=141	=141	=141	=141	=141
00Fl	00F]	00cl	00al	00f]
==	==	==	==	==
*-	*-	*-	*-	*-
!!!system-decoration: [*]
!!!RDF**kern: i = editorial accidental
!!!RDF**kern: l = terminal long
!!!ENC: Benjamin Ory
!!!END: 2024/5/15
!!!EED: Benjamin Ory
!!!EEV: 2024/05/15
!!!YEC: Copyright 2024 Benjamin Ory, All Rights Reserved
!!!ONB: Translated from MusicXML on 2024/05/15
